!!!COM: Bach, Johann Sebastian
!!!OTL: 276. Lobt Gott, ihr Christen, allzugleich
!!!ONM: No. 276
!!!OCL: Erk
!!!SCA: BWV 375
!!!YOE: Riemenschneider, Albert
!!!OPR: 371 Harmonized Chorales and 69 Chorale Melodies with Figured Bass
!!!OPT: Bach Chorale Harmonizations
**harm	**root	**kern	**kern	**kern	**kern
!	!	!bass	!tenor	!alto	!sprno
*Iorgan	*Iorgan	*Iorgan	*Iorgan	*Iorgan	*Iorgan
*k[f#c#]	*k[f#c#]	*k[f#c#]	*k[f#c#]	*k[f#c#]	*k[f#c#]
*D:	*D:	*D:	*D:	*D:	*D:
*met(c)	*met(c)	*met(c)	*met(c)	*met(c)	*met(c)
*M4/4	*M4/4	*M4/4	*M4/4	*M4/4	*M4/4
*MM60	*MM60	*MM60	*MM60	*MM60	*MM60
I	4GG	4D	4F#	4A	4d
=1	=1	=1	=1	=1	=1
Vb	4DD	4C#	4E	8A	4a
.	.	.	.	8B	.
V	4DD	4AA	8E	4c#	4a
.	.	.	16F#	.	.
.	.	.	16G	.	.
I	4GG	8D	8F#	4d	4a
.	.	8E	8E	.	.
I	4GG	8F#	4D	8d	4a
.	.	8D	.	8c	.
=2	=2	=2	=2	=2	=2
IV	4CC	4G	4D	8B	4b
.	.	.	.	8d	.
V	4DD	4A	4A	4c#y	8a
.	.	.	.	.	8g
I;	4GG;	4D;	4A;	4d;	4f#;
Vb	4DD	4C#	4A	4e	4e
=3	=3	=3	=3	=3	=3
vi	4EE	4BB	4D	4d	8f#
.	.	.	.	.	8g#
iii	4BB	8F#	8A	4c#	4a
.	.	8E	8G#	.	.
vi7b	4EE	4D	8F#	4B	4a
.	.	.	8B	.	.
V/V	4AA	4E	8e	4B	4g#
.	.	.	8d	.	.
=4	=4	=4	=4	=4	=4
V;	2.DD;	2.AA;	2.c#;	2.A;	2.a;
V	4DD	4AA	8A	4c#	4a
.	.	.	8G	.	.
=5	=5	=5	=5	=5	=5
I	4GG	8D	8F#	4d	4a
.	.	8E	8G	.	.
iii	4BB	8F#	8A	4c#	4a
.	.	8E	8G	.	.
I	2GG	4.D	8F#	8d	8a
.	.	.	8G	8e	8g
.	.	.	4A	8f#	8f#
.	.	8E	.	8e	8g
=6	=6	=6	=6	=6	=6
!!linebreak: 2
Ib	4GG	4F#	4A	4d	8a
.	.	.	.	.	8g
IV7	4CC	4G	4B	8d	4f#
.	.	.	.	16c#	.
.	.	.	.	16B	.
V;	4DD;	4A;	4E;	4c#;	4e;
iii	4BB	4F#	8F#	4c#	4a
.	.	.	8E	.	.
=7	=7	=7	=7	=7	=7
IVb	4CC	[4BB	8D	4d	4g
.	.	.	8E	.	.
vi	8EE	8BB]	8F#	8d	4f#
iiib	8BB	8AA	8A	8c#	.
iib	4AA	8GG	4B	4B	4e
.	.	8EE	.	.	.
V	4DD	8AA	4A	4c#	4e
.	.	8G	.	.	.
=8	=8	=8	=8	=8	=8
Ib	4GG	4F#	4A	4d	8d
.	.	.	.	.	8e
viib	4FF#	4E	4G	4c#	8f#
.	.	.	.	.	8g
viioD7/ii;	4GG#;	4D#;	4F#;	4c;	4a;
V7b/ii	4EE	4DD#y	4F#	4B	4a
=9	=9	=9	=9	=9	=9
ii	4AA	4EE	8G	8B	4g
.	.	.	8A	8c#y	.
vi	4EE	8BB	4B	8d	4f#
.	.	8AA	.	8c#	.
iib	4AA	8GG	8B	4B	4e
.	.	8EE	8G	.	.
V	4DD	4AA	8E	4c#	4e
.	.	.	16F#	.	.
.	.	.	16G	.	.
=10	=10	=10	=10	=10	=10
I;	2.GG;	2.DD;	2.F#;	2.A;	2.d;
==	==	==	==	==	==
*-	*-	*-	*-	*-	*-
!!!CDT: 1685/3//-1750/7/28
!!!OCY: Deutschland
!!!AGN: chorale
!!!AST: Baroque
!!!AIN: vox
!!!YOY: 1941
!!!PPP: New York; London
!!!PPR: G. Schirmer
!!!ENC: David Huron
!!!EED: David Huron
!!!YEN: United States of America
!!!YER: 1992
!!!YEC: Copyright 1992 David Huron
!!!YEM: Rights to all derivative electronic formats reserved.
!!!YER: March 20, 1996
!!!AMT: simple quadruple
!!!EEV: 1.1
!!chor2scor: -l 2 -s 0.6 -o %b.pmx
